src/assets/SOFTSKILLS_t.svg

<svg width="265" height="35" fill="none" xmlns="http://www.w3.org/2000/svg"><path d="M22.512 9.328c-.8-.512-1.6-.912-2.4-1.2a16.282 16.282 0 0 0-2.256-.672c-.704-.16-1.36-.256-1.968-.288a15.404 15.404 0 0 0-1.584-.096c-.928 0-1.68.096-2.256.288-.544.192-.992.448-1.344.768-.32.32-.544.672-.672 1.056a3.831 3.831 0 0 0-.144 1.008c0 .544.096.992.288 1.344.224.352.592.656 1.104.912.544.256 1.264.48 2.16.672.928.192 2.08.4 3.456.624 1.376.224 2.688.56 3.936 1.008 1.248.416 2.336 1.008 3.264 1.776.96.768 1.712 1.744 2.256 2.928.576 1.152.864 2.576.864 4.272 0 1.728-.384 3.264-1.152 4.608a10.678 10.678 0 0 1-3.024 3.312c-1.216.864-2.624 1.52-4.224 1.968a17.388 17.388 0 0 1-4.8.672c-1.12 0-2.256-.064-3.408-.192a18.69 18.69 0 0 1-3.456-.624 19.81 19.81 0 0 1-3.456-1.44c-1.12-.608-2.224-1.392-3.312-2.352l4.272-5.664c1.568 1.408 3.152 2.352 4.752 2.832 1.6.448 3.264.672 4.992.672 1.632 0 2.88-.32 3.744-.96.864-.672 1.296-1.456 1.296-2.352a4.93 4.93 0 0 0-.144-1.2c-.096-.384-.304-.736-.624-1.056-.32-.352-.784-.64-1.392-.864-.608-.256-1.408-.432-2.4-.528-1.6-.16-3.136-.416-4.608-.768-1.472-.352-2.784-.896-3.936-1.632a9.016 9.016 0 0 1-2.784-2.928c-.672-1.216-1.008-2.768-1.008-4.656 0-1.76.336-3.28 1.008-4.56.704-1.312 1.6-2.384 2.688-3.216A10.842 10.842 0 0 1 9.984.928a14.2 14.2 0 0 1 4.128-.624c2.048 0 4.08.224 6.096.672 2.016.448 3.92 1.264 5.712 2.448l-3.408 5.904zm116.166 0c-.8-.512-1.6-.912-2.4-1.2a16.282 16.282 0 0 0-2.256-.672c-.704-.16-1.36-.256-1.968-.288a15.404 15.404 0 0 0-1.584-.096c-.928 0-1.68.096-2.256.288-.544.192-.992.448-1.344.768-.32.32-.544.672-.672 1.056a3.831 3.831 0 0 0-.144 1.008c0 .544.096.992.288 1.344.224.352.592.656 1.104.912.544.256 1.264.48 2.16.672.928.192 2.08.4 3.456.624 1.376.224 2.688.56 3.936 1.008 1.248.416 2.336 1.008 3.264 1.776.96.768 1.712 1.744 2.256 2.928.576 1.152.864 2.576.864 4.272 0 1.728-.384 3.264-1.152 4.608a10.678 10.678 0 0 1-3.024 3.312c-1.216.864-2.624 1.52-4.224 1.968a17.388 17.388 0 0 1-4.8.672c-1.12 0-2.256-.064-3.408-.192a18.69 18.69 0 0 1-3.456-.624 19.81 19.81 0 0 1-3.456-1.44c-1.12-.608-2.224-1.392-3.312-2.352l4.272-5.664c1.568 1.408 3.152 2.352 4.752 2.832 1.6.448 3.264.672 4.992.672 1.632 0 2.88-.32 3.744-.96.864-.672 1.296-1.456 1.296-2.352a4.93 4.93 0 0 0-.144-1.2c-.096-.384-.304-.736-.624-1.056-.32-.352-.784-.64-1.392-.864-.608-.256-1.408-.432-2.4-.528-1.6-.16-3.136-.416-4.608-.768-1.472-.352-2.784-.896-3.936-1.632a9.016 9.016 0 0 1-2.784-2.928c-.672-1.216-1.008-2.768-1.008-4.656 0-1.76.336-3.28 1.008-4.56.704-1.312 1.6-2.384 2.688-3.216A10.842 10.842 0 0 1 126.15.928a14.2 14.2 0 0 1 4.128-.624c2.048 0 4.08.224 6.096.672 2.016.448 3.92 1.264 5.712 2.448l-3.408 5.904z" fill="#D3A7E0"/><path d="M41.46.352c2.016 0 3.824.336 5.424 1.008 1.632.64 3.008 1.536 4.128 2.688 1.152 1.152 2.032 2.528 2.64 4.128.608 1.6.912 3.328.912 5.184v7.872c0 1.984-.32 3.792-.96 5.424-.608 1.6-1.488 2.976-2.64 4.128-1.12 1.12-2.496 1.984-4.128 2.592-1.6.608-3.392.912-5.376.912-2.176 0-4.08-.352-5.712-1.056-1.6-.704-2.944-1.648-4.032-2.832a12.602 12.602 0 0 1-2.4-4.176 16.279 16.279 0 0 1-.768-4.992V13.36c0-1.728.256-3.376.768-4.944.544-1.568 1.344-2.944 2.4-4.128 1.088-1.216 2.432-2.176 4.032-2.88C37.38.704 39.284.352 41.46.352zm-.048 6.912c-.928 0-1.728.16-2.4.48a4.604 4.604 0 0 0-1.68 1.2 5.128 5.128 0 0 0-1.008 1.776 5.916 5.916 0 0 0-.336 1.968v9.072c0 .736.112 1.44.336 2.112.224.672.56 1.264 1.008 1.776a5.126 5.126 0 0 0 1.68 1.248c.672.32 1.472.48 2.4.48 1.792 0 3.168-.528 4.128-1.584.992-1.088 1.488-2.432 1.488-4.032v-9.072c0-1.472-.496-2.736-1.488-3.792-.96-1.088-2.336-1.632-4.128-1.632zm23.953-.048v7.056H79.19v6.384H65.365V34h-7.392V.592H81.59v6.624H65.365zm31.364 0V34h-7.344V7.216h-9.12V.592h25.584v6.624h-9.12zM166.506 34l-8.64-14.208-4.368 4.896V34h-7.392V.592h7.392v14.304l.096.096 5.088-6.192 6.96-8.208h8.928l-11.712 13.536L175.242 34h-8.736zm9.37 0V.592h7.392V34h-7.392zm12.046 0V.592h7.392v26.784h16.224V34h-23.616zm26.158 0V.592h7.392v26.784h16.224V34H214.08zm45.31-24.672c-.8-.512-1.6-.912-2.4-1.2a16.282 16.282 0 0 0-2.256-.672c-.704-.16-1.36-.256-1.968-.288a15.404 15.404 0 0 0-1.584-.096c-.928 0-1.68.096-2.256.288-.544.192-.992.448-1.344.768-.32.32-.544.672-.672 1.056a3.831 3.831 0 0 0-.144 1.008c0 .544.096.992.288 1.344.224.352.592.656 1.104.912.544.256 1.264.48 2.16.672.928.192 2.08.4 3.456.624 1.376.224 2.688.56 3.936 1.008 1.248.416 2.336 1.008 3.264 1.776.96.768 1.712 1.744 2.256 2.928.576 1.152.864 2.576.864 4.272 0 1.728-.384 3.264-1.152 4.608a10.678 10.678 0 0 1-3.024 3.312c-1.216.864-2.624 1.52-4.224 1.968a17.388 17.388 0 0 1-4.8.672c-1.12 0-2.256-.064-3.408-.192a18.69 18.69 0 0 1-3.456-.624 19.81 19.81 0 0 1-3.456-1.44c-1.12-.608-2.224-1.392-3.312-2.352l4.272-5.664c1.568 1.408 3.152 2.352 4.752 2.832 1.6.448 3.264.672 4.992.672 1.632 0 2.88-.32 3.744-.96.864-.672 1.296-1.456 1.296-2.352a4.93 4.93 0 0 0-.144-1.2c-.096-.384-.304-.736-.624-1.056-.32-.352-.784-.64-1.392-.864-.608-.256-1.408-.432-2.4-.528-1.6-.16-3.136-.416-4.608-.768-1.472-.352-2.784-.896-3.936-1.632a9.016 9.016 0 0 1-2.784-2.928c-.672-1.216-1.008-2.768-1.008-4.656 0-1.76.336-3.28 1.008-4.56.704-1.312 1.6-2.384 2.688-3.216a10.842 10.842 0 0 1 3.744-1.872 14.2 14.2 0 0 1 4.128-.624c2.048 0 4.08.224 6.096.672 2.016.448 3.92 1.264 5.712 2.448l-3.408 5.904z" fill="#FBEDFF"/></svg>

<svg width="265" height="35" viewBox="0 0 265 35" fill="none" xmlns="http://www.w3.org/2000/svg">
<path d="M22.512 9.328C21.712 8.816 20.912 8.416 20.112 8.128C19.344 7.84 18.592 7.616 17.856 7.456C17.152 7.296 16.496 7.2 15.888 7.168C15.28 7.104 14.752 7.072 14.304 7.072C13.376 7.072 12.624 7.168 12.048 7.36C11.504 7.552 11.056 7.808 10.704 8.128C10.384 8.448 10.16 8.8 10.032 9.184C9.936 9.536 9.888 9.872 9.888 10.192C9.888 10.736 9.984 11.184 10.176 11.536C10.4 11.888 10.768 12.192 11.28 12.448C11.824 12.704 12.544 12.928 13.44 13.12C14.368 13.312 15.52 13.52 16.896 13.744C18.272 13.968 19.584 14.304 20.832 14.752C22.08 15.168 23.168 15.76 24.096 16.528C25.056 17.296 25.808 18.272 26.352 19.456C26.928 20.608 27.216 22.032 27.216 23.728C27.216 25.456 26.832 26.992 26.064 28.336C25.296 29.648 24.288 30.752 23.04 31.648C21.824 32.512 20.416 33.168 18.816 33.616C17.248 34.064 15.648 34.288 14.016 34.288C12.896 34.288 11.76 34.224 10.608 34.096C9.456 34 8.304 33.792 7.152 33.472C6 33.12 4.848 32.64 3.696 32.032C2.576 31.424 1.472 30.64 0.384 29.68L4.656 24.016C6.224 25.424 7.808 26.368 9.408 26.848C11.008 27.296 12.672 27.52 14.4 27.52C16.032 27.52 17.28 27.2 18.144 26.56C19.008 25.888 19.44 25.104 19.44 24.208C19.44 23.792 19.392 23.392 19.296 23.008C19.2 22.624 18.992 22.272 18.672 21.952C18.352 21.6 17.888 21.312 17.28 21.088C16.672 20.832 15.872 20.656 14.88 20.56C13.28 20.4 11.744 20.144 10.272 19.792C8.8 19.44 7.488 18.896 6.336 18.16C5.184 17.392 4.256 16.416 3.552 15.232C2.88 14.016 2.544 12.464 2.544 10.576C2.544 8.816 2.88 7.296 3.552 6.016C4.256 4.704 5.152 3.632 6.24 2.8C7.36 1.936 8.608 1.312 9.984 0.927999C11.36 0.511999 12.736 0.303999 14.112 0.303999C16.16 0.303999 18.192 0.527999 20.208 0.975999C22.224 1.424 24.128 2.24 25.92 3.424L22.512 9.328ZM138.678 9.328C137.878 8.816 137.078 8.416 136.278 8.128C135.51 7.84 134.758 7.616 134.022 7.456C133.318 7.296 132.662 7.2 132.054 7.168C131.446 7.104 130.918 7.072 130.47 7.072C129.542 7.072 128.79 7.168 128.214 7.36C127.67 7.552 127.222 7.808 126.87 8.128C126.55 8.448 126.326 8.8 126.198 9.184C126.102 9.536 126.054 9.872 126.054 10.192C126.054 10.736 126.15 11.184 126.342 11.536C126.566 11.888 126.934 12.192 127.446 12.448C127.99 12.704 128.71 12.928 129.606 13.12C130.534 13.312 131.686 13.52 133.062 13.744C134.438 13.968 135.75 14.304 136.998 14.752C138.246 15.168 139.334 15.76 140.262 16.528C141.222 17.296 141.974 18.272 142.518 19.456C143.094 20.608 143.382 22.032 143.382 23.728C143.382 25.456 142.998 26.992 142.23 28.336C141.462 29.648 140.454 30.752 139.206 31.648C137.99 32.512 136.582 33.168 134.982 33.616C133.414 34.064 131.814 34.288 130.182 34.288C129.062 34.288 127.926 34.224 126.774 34.096C125.622 34 124.47 33.792 123.318 33.472C122.166 33.12 121.014 32.64 119.862 32.032C118.742 31.424 117.638 30.64 116.55 29.68L120.822 24.016C122.39 25.424 123.974 26.368 125.574 26.848C127.174 27.296 128.838 27.52 130.566 27.52C132.198 27.52 133.446 27.2 134.31 26.56C135.174 25.888 135.606 25.104 135.606 24.208C135.606 23.792 135.558 23.392 135.462 23.008C135.366 22.624 135.158 22.272 134.838 21.952C134.518 21.6 134.054 21.312 133.446 21.088C132.838 20.832 132.038 20.656 131.046 20.56C129.446 20.4 127.91 20.144 126.438 19.792C124.966 19.44 123.654 18.896 122.502 18.16C121.35 17.392 120.422 16.416 119.718 15.232C119.046 14.016 118.71 12.464 118.71 10.576C118.71 8.816 119.046 7.296 119.718 6.016C120.422 4.704 121.318 3.632 122.406 2.8C123.526 1.936 124.774 1.312 126.15 0.927999C127.526 0.511999 128.902 0.303999 130.278 0.303999C132.326 0.303999 134.358 0.527999 136.374 0.975999C138.39 1.424 140.294 2.24 142.086 3.424L138.678 9.328Z" fill="#D3A7E0"/>
<path d="M41.46 0.351998C43.476 0.351998 45.284 0.687999 46.884 1.36C48.516 2 49.892 2.896 51.012 4.048C52.164 5.2 53.044 6.576 53.652 8.176C54.26 9.776 54.564 11.504 54.564 13.36V21.232C54.564 23.216 54.244 25.024 53.604 26.656C52.996 28.256 52.116 29.632 50.964 30.784C49.844 31.904 48.468 32.768 46.836 33.376C45.236 33.984 43.444 34.288 41.46 34.288C39.284 34.288 37.38 33.936 35.748 33.232C34.148 32.528 32.804 31.584 31.716 30.4C30.66 29.184 29.86 27.792 29.316 26.224C28.804 24.624 28.548 22.96 28.548 21.232V13.36C28.548 11.632 28.804 9.984 29.316 8.416C29.86 6.848 30.66 5.472 31.716 4.288C32.804 3.072 34.148 2.112 35.748 1.408C37.38 0.703999 39.284 0.351998 41.46 0.351998ZM41.412 7.264C40.484 7.264 39.684 7.424 39.012 7.744C38.34 8.032 37.78 8.432 37.332 8.944C36.884 9.456 36.548 10.048 36.324 10.72C36.1 11.36 35.988 12.016 35.988 12.688V21.76C35.988 22.496 36.1 23.2 36.324 23.872C36.548 24.544 36.884 25.136 37.332 25.648C37.78 26.16 38.34 26.576 39.012 26.896C39.684 27.216 40.484 27.376 41.412 27.376C43.204 27.376 44.58 26.848 45.54 25.792C46.532 24.704 47.028 23.36 47.028 21.76V12.688C47.028 11.216 46.532 9.952 45.54 8.896C44.58 7.808 43.204 7.264 41.412 7.264ZM65.3651 7.216V14.272H79.1891V20.656H65.3651V34H57.9731V0.591998H81.5891V7.216H65.3651ZM96.7286 7.216V34H89.3846V7.216H80.2646V0.591998H105.849V7.216H96.7286ZM166.506 34L157.866 19.792L153.498 24.688V34H146.106V0.591998H153.498V14.896L153.594 14.992L158.682 8.8L165.642 0.591998H174.57L162.858 14.128L175.242 34H166.506ZM175.876 34V0.591998H183.268V34H175.876ZM187.922 34V0.591998H195.314V27.376H211.538V34H187.922ZM214.08 34V0.591998H221.472V27.376H237.696V34H214.08ZM259.39 9.328C258.59 8.816 257.79 8.416 256.99 8.128C256.222 7.84 255.47 7.616 254.734 7.456C254.03 7.296 253.374 7.2 252.766 7.168C252.158 7.104 251.63 7.072 251.182 7.072C250.254 7.072 249.502 7.168 248.926 7.36C248.382 7.552 247.934 7.808 247.582 8.128C247.262 8.448 247.038 8.8 246.91 9.184C246.814 9.536 246.766 9.872 246.766 10.192C246.766 10.736 246.862 11.184 247.054 11.536C247.278 11.888 247.646 12.192 248.158 12.448C248.702 12.704 249.422 12.928 250.318 13.12C251.246 13.312 252.398 13.52 253.774 13.744C255.15 13.968 256.462 14.304 257.71 14.752C258.958 15.168 260.046 15.76 260.974 16.528C261.934 17.296 262.686 18.272 263.23 19.456C263.806 20.608 264.094 22.032 264.094 23.728C264.094 25.456 263.71 26.992 262.942 28.336C262.174 29.648 261.166 30.752 259.918 31.648C258.702 32.512 257.294 33.168 255.694 33.616C254.126 34.064 252.526 34.288 250.894 34.288C249.774 34.288 248.638 34.224 247.486 34.096C246.334 34 245.182 33.792 244.03 33.472C242.878 33.12 241.726 32.64 240.574 32.032C239.454 31.424 238.35 30.64 237.262 29.68L241.534 24.016C243.102 25.424 244.686 26.368 246.286 26.848C247.886 27.296 249.55 27.52 251.278 27.52C252.91 27.52 254.158 27.2 255.022 26.56C255.886 25.888 256.318 25.104 256.318 24.208C256.318 23.792 256.27 23.392 256.174 23.008C256.078 22.624 255.87 22.272 255.55 21.952C255.23 21.6 254.766 21.312 254.158 21.088C253.55 20.832 252.75 20.656 251.758 20.56C250.158 20.4 248.622 20.144 247.15 19.792C245.678 19.44 244.366 18.896 243.214 18.16C242.062 17.392 241.134 16.416 240.43 15.232C239.758 14.016 239.422 12.464 239.422 10.576C239.422 8.816 239.758 7.296 240.43 6.016C241.134 4.704 242.03 3.632 243.118 2.8C244.238 1.936 245.486 1.312 246.862 0.927999C248.238 0.511999 249.614 0.303999 250.99 0.303999C253.038 0.303999 255.07 0.527999 257.086 0.975999C259.102 1.424 261.006 2.24 262.798 3.424L259.39 9.328Z" fill="#FBEDFF"/>
</svg>
